;FLAVOR:Marlin
;TIME:7383
;Filament used: 7.00851m
;Layer height: 0.15
;Generated with Cura_SteamEngine 3.1.0
M190 S60
M104 S205
M109 S205
M82 ; absolute extrusion mode
G21 ;metric values
G90 ;absolute positioning
M82 ;set extruder to absolute mode
M107 ;start with the fan off
G28 X0 Y0 ;move X/Y to min endstops
G28 Z0 ;move Z to min endstops
G1 Z15.0 F9000 ;move the platform down 15mm
G92 E0 ;zero the extruded length
G1 F200 E3 ;extrude 3mm of feed stock
G92 E0 ;zero the extruded length again
G1 F9000
;Put printing message on LCD screen
M117 Printing...
;LAYER_COUNT:53
;LAYER:0
M107
G0 F3600 X35.29 Y39.787 Z0.3
;TYPE:SKIRT
G1 F1800 X35.888 Y39.27 E0.03989
G1 X36.534 Y38.817 E0.07971
G1 X37.224 Y38.432 E0.11958
G1 X37.948 Y38.118 E0.15941
G1 X38.701 Y37.879 E0.19928
G1 X39.474 Y37.717 E0.23914
G1 X40.259 Y37.634 E0.27897
G1 X40.685 Y37.623 E0.30048
G1 X87.27 Y37.638 E2.6514
G1 X87.266 Y22.21 E3.42998
G1 X87.306 Y21.421 E3.46985
G1 X87.425 Y20.641 E3.50967
G1 X87.623 Y19.876 E3.54955
G1 X87.897 Y19.136 E3.58937
G1 X88.244 Y18.426 E3.62925
G1 X88.661 Y17.756 E3.66908
G1 X89.144 Y17.131 E3.70894
G1 X89.688 Y16.558 E3.74881
G1 X90.287 Y16.044 E3.78864
G1 X90.935 Y15.592 E3.82851
G1 X91.625 Y15.208 E3.86836
G1 X92.35 Y14.896 E3.90819
G1 X93.103 Y14.659 E3.94803
G1 X93.877 Y14.499 E3.98792
G1 X94.662 Y14.418 E4.02774
G1 X95.066 Y14.408 E4.04814
G1 X100.883 Y14.408 E4.3417
G1 X101.672 Y14.448 E4.38156
G1 X102.452 Y14.567 E4.42138
G1 X103.217 Y14.765 E4.46126
G1 X103.957 Y15.039 E4.50108
G1 X104.666 Y15.387 E4.54094
G1 X105.337 Y15.805 E4.58083
G1 X105.961 Y16.288 E4.62066
G1 X106.534 Y16.831 E4.66049
G1 X107.049 Y17.43 E4.70036
G1 X107.5 Y18.078 E4.7402
G1 X107.884 Y18.769 E4.7801
G1 X108.196 Y19.494 E4.81993
G1 X108.433 Y20.247 E4.85977
G1 X108.592 Y21.021 E4.89964
G1 X108.673 Y21.806 E4.93947
G1 X108.683 Y22.209 E4.95981
G1 X108.678 Y51.248 E6.42527
G1 X108.638 Y52.037 E6.46514
G1 X108.518 Y52.818 E6.50502
G1 X108.32 Y53.582 E6.54485
G1 X108.046 Y54.323 E6.58472
G1 X107.698 Y55.032 E6.62457
G1 X107.281 Y55.702 E6.6644
G1 X106.797 Y56.326 E6.70425
G1 X106.254 Y56.899 E6.74409
G1 X105.655 Y57.413 E6.78392
G1 X105.007 Y57.865 E6.82379
G1 X104.316 Y58.248 E6.86366
G1 X103.591 Y58.56 E6.90349
G1 X102.837 Y58.797 E6.94338
G1 X102.064 Y58.956 E6.98321
G1 X100.884 Y59.047 E7.04293
G1 X66.89 Y59.074 E8.75845
G1 X86.298 Y86.79 E10.46597
G1 X86.718 Y87.459 E10.50584
G1 X87.068 Y88.167 E10.54569
G1 X87.344 Y88.907 E10.58555
G1 X87.544 Y89.67 E10.62536
G1 X87.666 Y90.451 E10.66525
G1 X87.709 Y91.239 E10.70507
G1 X87.671 Y92.028 E10.74494
G1 X87.554 Y92.809 E10.78479
G1 X87.359 Y93.574 E10.82463
G1 X87.087 Y94.316 E10.86451
G1 X86.742 Y95.026 E10.90435
G1 X86.327 Y95.697 E10.94417
G1 X85.845 Y96.324 E10.98408
G1 X85.303 Y96.898 E11.02392
G1 X84.706 Y97.414 E11.06374
G1 X84.06 Y97.868 E11.10358
G1 X83.371 Y98.254 E11.14344
G1 X82.646 Y98.568 E11.18331
G1 X81.894 Y98.807 E11.22313
G1 X81.121 Y98.969 E11.26299
G1 X80.335 Y99.052 E11.30287
G1 X79.919 Y99.064 E11.32388
G1 X78.893 Y99.065 E11.37565
G1 X98.306 Y126.79 E13.08369
G1 X98.726 Y127.459 E13.12356
G1 X99.076 Y128.167 E13.16341
G1 X99.352 Y128.907 E13.20327
G1 X99.553 Y129.671 E13.24314
G1 X99.675 Y130.451 E13.28298
G1 X99.717 Y131.239 E13.3228
G1 X99.679 Y132.028 E13.36267
G1 X99.562 Y132.809 E13.40252
G1 X99.367 Y133.574 E13.44236
G1 X99.095 Y134.316 E13.48224
G1 X98.75 Y135.026 E13.52208
G1 X98.334 Y135.698 E13.56196
G1 X97.853 Y136.324 E13.6018
G1 X97.311 Y136.898 E13.64164
G1 X96.714 Y137.415 E13.6815
G1 X96.067 Y137.868 E13.72136
G1 X95.378 Y138.254 E13.76121
G1 X94.654 Y138.568 E13.80104
G1 X94.586 Y138.59 E13.80464
G1 X110 Y160.621 E15.16155
G1 X125.417 Y138.584 E16.51879
G1 X125.009 Y138.433 E16.54074
G1 X124.3 Y138.085 E16.5806
G1 X123.629 Y137.667 E16.62049
G1 X123.005 Y137.184 E16.66032
G1 X122.432 Y136.641 E16.70015
G1 X121.917 Y136.042 E16.74002
G1 X121.466 Y135.394 E16.77986
G1 X121.082 Y134.703 E16.81976
G1 X120.77 Y133.978 E16.85959
G1 X120.533 Y133.225 E16.89942
G1 X120.374 Y132.451 E16.9393
G1 X120.293 Y131.666 E16.97913
G1 X120.293 Y130.876 E17.01899
G1 X120.372 Y130.09 E17.05886
G1 X120.53 Y129.317 E17.09868
G1 X120.766 Y128.563 E17.13855
G1 X121.076 Y127.837 E17.17838
G1 X121.459 Y127.146 E17.21825
G1 X121.694 Y126.79 E17.23978
G1 X141.107 Y99.065 E18.94782
G1 X140.08 Y99.064 E18.99965
G1 X139.292 Y99.023 E19.03947
G1 X138.511 Y98.902 E19.07935
G1 X137.747 Y98.703 E19.1192
G1 X137.007 Y98.428 E19.15904
G1 X136.298 Y98.08 E19.19889
G1 X135.628 Y97.661 E19.23877
G1 X135.005 Y97.177 E19.27858
G1 X134.433 Y96.633 E19.31842
G1 X133.919 Y96.033 E19.35829
G1 X133.468 Y95.385 E19.39813
G1 X133.086 Y94.694 E19.43798
G1 X132.775 Y93.968 E19.47784
G1 X132.539 Y93.214 E19.51771
G1 X132.38 Y92.441 E19.55753
G1 X132.301 Y91.655 E19.5974
G1 X132.301 Y90.865 E19.63727
G1 X132.381 Y90.08 E19.67709
G1 X132.541 Y89.306 E19.71697
G1 X132.777 Y88.553 E19.7568
G1 X133.089 Y87.827 E19.79667
G1 X133.472 Y87.137 E19.8365
G1 X133.7 Y86.793 E19.85733
G1 X153.102 Y59.059 E21.56542
G1 X119.119 Y59.047 E23.28038
G1 X118.331 Y59.007 E23.3202
G1 X117.55 Y58.887 E23.36008
G1 X116.786 Y58.689 E23.39991
G1 X116.045 Y58.415 E23.43978
G1 X115.336 Y58.067 E23.47963
G1 X114.666 Y57.649 E23.51949
G1 X114.042 Y57.166 E23.55931
G1 X113.469 Y56.622 E23.59918
G1 X112.955 Y56.022 E23.63905
G1 X112.503 Y55.374 E23.67892
G1 X112.12 Y54.684 E23.71875
G1 X111.808 Y53.958 E23.75863
G1 X111.572 Y53.205 E23.79845
G1 X111.412 Y52.432 E23.83829
G1 X111.332 Y51.646 E23.87816
G1 X111.322 Y51.249 E23.8982
G1 X111.316 Y22.21 E25.36366
G1 X111.356 Y21.421 E25.40353
G1 X111.475 Y20.64 E25.4434
G1 X111.673 Y19.876 E25.48322
G1 X111.947 Y19.135 E25.52309
G1 X112.294 Y18.426 E25.56293
G1 X112.712 Y17.756 E25.60278
G1 X113.195 Y17.131 E25.64264
G1 X113.738 Y16.558 E25.68248
G1 X114.337 Y16.043 E25.72235
G1 X114.985 Y15.592 E25.76219
G1 X115.675 Y15.208 E25.80204
G1 X116.401 Y14.896 E25.84192
G1 X117.154 Y14.659 E25.88176
G1 X117.927 Y14.499 E25.92159
G1 X118.713 Y14.418 E25.96147
G1 X119.116 Y14.408 E25.98181
G1 X124.933 Y14.408 E26.27537
G1 X125.722 Y14.448 E26.31524
G1 X126.502 Y14.567 E26.35505
G1 X127.267 Y14.765 E26.39493
G1 X128.007 Y15.039 E26.43475
G1 X128.716 Y15.387 E26.47461
G1 X129.387 Y15.805 E26.51451
G1 X130.011 Y16.288 E26.55433
G1 X130.584 Y16.831 E26.59417
G1 X131.099 Y17.43 E26.63403
G1 X131.55 Y18.078 E26.67387
G1 X131.934 Y18.769 E26.71377
G1 X132.246 Y19.494 E26.7536
G1 X132.483 Y20.247 E26.79344
G1 X132.642 Y21.021 E26.83331
G1 X132.723 Y21.806 E26.87314
G1 X132.733 Y22.209 E26.89348
G1 X132.73 Y37.639 E27.67216
G1 X179.316 Y37.624 E30.02314
G1 X180.104 Y37.664 E30.06296
G1 X180.885 Y37.783 E30.10283
G1 X181.649 Y37.981 E30.14266
G1 X182.39 Y38.254 E30.18251
G1 X183.099 Y38.602 E30.22237
G1 X183.77 Y39.019 E30.26223
G1 X184.394 Y39.502 E30.30206
G1 X184.967 Y40.046 E30.34193
G1 X185.482 Y40.644 E30.38176
G1 X185.934 Y41.292 E30.42163
G1 X186.318 Y41.982 E30.46148
G1 X186.63 Y42.708 E30.50135
G1 X186.867 Y43.461 E30.54119
G1 X187.027 Y44.234 E30.58103
G1 X187.108 Y45.02 E30.6209
G1 X187.108 Y45.81 E30.66077
G1 X187.03 Y46.595 E30.70058
G1 X186.872 Y47.369 E30.74045
G1 X186.636 Y48.123 E30.78032
G1 X186.326 Y48.849 E30.82016
G1 X185.944 Y49.54 E30.86
G1 X185.709 Y49.895 E30.88149
G1 X166.311 Y77.624 E32.58926
G1 X167.31 Y77.624 E32.63967
G1 X168.099 Y77.664 E32.67954
G1 X168.88 Y77.784 E32.71942
G1 X169.644 Y77.981 E32.75923
G1 X170.385 Y78.256 E32.79912
G1 X171.094 Y78.603 E32.83896
G1 X171.764 Y79.021 E32.87881
G1 X172.389 Y79.504 E32.91867
G1 X172.961 Y80.048 E32.95851
G1 X173.476 Y80.647 E32.99837
G1 X173.927 Y81.295 E33.03821
G1 X174.311 Y81.985 E33.07806
G1 X174.623 Y82.71 E33.1179
G1 X174.86 Y83.464 E33.15778
G1 X175.019 Y84.237 E33.19761
G1 X175.1 Y85.023 E33.23748
G1 X175.1 Y85.812 E33.2773
G1 X175.021 Y86.598 E33.31717
G1 X174.863 Y87.372 E33.35703
G1 X174.627 Y88.126 E33.3969
G1 X174.317 Y88.852 E33.43674
G1 X173.934 Y89.542 E33.47657
G1 X173.701 Y89.895 E33.49791
G1 X153.967 Y118.103 E35.23521
G1 X154.375 Y118.254 E35.25717
G1 X155.084 Y118.602 E35.29702
G1 X155.755 Y119.02 E35.33692
G1 X156.379 Y119.503 E35.37674
G1 X156.952 Y120.046 E35.41658
G1 X157.467 Y120.645 E35.45644
G1 X157.918 Y121.293 E35.49629
G1 X158.302 Y121.984 E35.53618
G1 X158.614 Y122.709 E35.57601
G1 X158.851 Y123.462 E35.61585
G1 X159.01 Y124.236 E35.65573
G1 X159.091 Y125.021 E35.69555
G1 X159.091 Y125.811 E35.73542
G1 X159.012 Y126.597 E35.77528
G1 X158.854 Y127.37 E35.8151
G1 X158.618 Y128.124 E35.85497
G1 X158.308 Y128.85 E35.89481
G1 X157.925 Y129.541 E35.93468
G1 X157.69 Y129.897 E35.95621
G1 X116.389 Y188.884 E39.59014
G1 X115.904 Y189.507 E39.62999
G1 X115.359 Y190.078 E39.66982
G1 X114.758 Y190.591 E39.7097
G1 X114.109 Y191.04 E39.74952
G1 X113.418 Y191.421 E39.78934
G1 X112.691 Y191.731 E39.82923
G1 X111.937 Y191.966 E39.86908
G1 X111.163 Y192.123 E39.90894
G1 X110.377 Y192.201 E39.9488
G1 X109.588 Y192.199 E39.98862
G1 X108.802 Y192.117 E40.0285
G1 X108.029 Y191.957 E40.06834
G1 X107.276 Y191.719 E40.10819
G1 X106.551 Y191.406 E40.14804
G1 X105.861 Y191.021 E40.18792
G1 X105.214 Y190.569 E40.22774
G1 X104.616 Y190.054 E40.26757
G1 X104.073 Y189.48 E40.30745
G1 X103.611 Y188.884 E40.3455
G1 X62.31 Y129.897 E43.97944
G1 X61.89 Y129.228 E44.0193
G1 X61.54 Y128.52 E44.05916
G1 X61.264 Y127.78 E44.09902
G1 X61.063 Y127.016 E44.13888
G1 X60.941 Y126.236 E44.17872
G1 X60.899 Y125.447 E44.2186
G1 X60.937 Y124.659 E44.25841
G1 X61.054 Y123.878 E44.29826
G1 X61.249 Y123.113 E44.3381
G1 X61.521 Y122.371 E44.37799
G1 X61.866 Y121.661 E44.41782
G1 X62.282 Y120.989 E44.45771
G1 X62.763 Y120.363 E44.49755
G1 X63.305 Y119.789 E44.53739
G1 X63.902 Y119.272 E44.57724
G1 X64.549 Y118.819 E44.6171
G1 X65.238 Y118.433 E44.65696
G1 X65.962 Y118.119 E44.69678
G1 X66.044 Y118.093 E44.70112
G1 X46.301 Y89.898 E46.43814
G1 X45.881 Y89.229 E46.47801
G1 X45.531 Y88.521 E46.51786
G1 X45.255 Y87.781 E46.55772
G1 X45.055 Y87.018 E46.59753
G1 X44.933 Y86.237 E46.63742
G1 X44.89 Y85.449 E46.67724
G1 X44.928 Y84.66 E46.71711
G1 X45.045 Y83.879 E46.75696
G1 X45.24 Y83.114 E46.7968
G1 X45.512 Y82.373 E46.83664
G1 X45.857 Y81.662 E46.87652
G1 X46.272 Y80.991 E46.91633
G1 X46.754 Y80.365 E46.9562
G1 X47.296 Y79.79 E46.99608
G1 X47.893 Y79.274 E47.0359
G1 X48.539 Y78.82 E47.07575
G1 X49.228 Y78.434 E47.1156
G1 X49.953 Y78.12 E47.15548
G1 X50.705 Y77.881 E47.1953
G1 X51.478 Y77.719 E47.23515
G1 X52.263 Y77.636 E47.27499
G1 X52.69 Y77.624 E47.29655
G1 X53.689 Y77.624 E47.34696
G1 X34.291 Y49.894 E49.05477
G1 X33.871 Y49.225 E49.09464
G1 X33.522 Y48.517 E49.13447
G1 X33.246 Y47.777 E49.17433
G1 X33.046 Y47.013 E49.21418
G1 X32.924 Y46.233 E49.25402
G1 X32.882 Y45.444 E49.2939
G1 X32.92 Y44.655 E49.33376
G1 X33.037 Y43.874 E49.37361
G1 X33.233 Y43.109 E49.41347
G1 X33.505 Y42.368 E49.4533
G1 X33.851 Y41.658 E49.49316
G1 X34.266 Y40.987 E49.53298
G1 X34.748 Y40.361 E49.57285
G1 X35.29 Y39.787 E49.61269
G0 F3600 X35.773 Y39.886
G1 F1800 X36.374 Y39.406 E49.6515
G1 X37.022 Y38.992 E49.69031
G1 X37.709 Y38.647 E49.7291
G1 X38.428 Y38.375 E49.7679
G1 X39.172 Y38.179 E49.80673
G1 X39.932 Y38.061 E49.84554
G1 X40.684 Y38.023 E49.88354
G1 X87.67 Y38.039 E52.2547
G1 X87.666 Y22.21 E53.05351
G1 X87.706 Y21.442 E53.09232
G1 X87.825 Y20.682 E53.13115
G1 X88.023 Y19.939 E53.16995
G1 X88.296 Y19.22 E53.20876
G1 X88.643 Y18.533 E53.2476
G1 X89.059 Y17.886 E53.28642
G1 X89.54 Y17.286 E53.32523
G1 X90.081 Y16.739 E53.36405
G1 X90.675 Y16.251 E53.40285
G1 X91.317 Y15.828 E53.44165
G1 X92 Y15.473 E53.48049
G1 X92.716 Y15.191 E53.51933
G1 X93.457 Y14.985 E53.55814
G1 X94.215 Y14.857 E53.59694
G1 X95.066 Y14.808 E53.63995
G1 X100.883 Y14.808 E53.93351
G1 X101.651 Y14.848 E53.97232
G1 X102.411 Y14.967 E54.01114
G1 X103.154 Y15.165 E54.04994
G1 X103.873 Y15.439 E54.08877
G1 X104.559 Y15.786 E54.12757
G1 X105.206 Y16.202 E54.16639
G1 X105.806 Y16.683 E54.2052
G1 X106.353 Y17.224 E54.24402
G1 X106.841 Y17.819 E54.28286
G1 X107.264 Y18.461 E54.32166
G1 X107.619 Y19.144 E54.3605
G1 X107.9 Y19.859 E54.39927
G1 X108.106 Y20.601 E54.43813
G1 X108.234 Y21.359 E54.47693
G1 X108.283 Y22.209 E54.51989
G1 X108.278 Y51.248 E55.98535
G1 X108.238 Y52.016 E56.02416
G1 X108.118 Y52.776 E56.06299
G1 X107.92 Y53.519 E56.1018
G1 X107.647 Y54.238 E56.14061
G1 X107.299 Y54.925 E56.17947
G1 X106.883 Y55.571 E56.21825
G1 X106.402 Y56.171 E56.25706
G1 X105.861 Y56.718 E56.29588
G1 X105.266 Y57.206 E56.33472
G1 X104.624 Y57.629 E56.37351
G1 X103.941 Y57.983 E56.41234
G1 X103.225 Y58.265 E56.45117
G1 X102.484 Y58.471 E56.48998
G1 X101.726 Y58.598 E56.52877
G1 X100.884 Y58.647 E56.57133
G1 X66.123 Y58.675 E58.32556
G1 X85.971 Y87.019 E60.07178
G1 X86.378 Y87.672 E60.11061
G1 X86.716 Y88.362 E60.14938
G1 X86.981 Y89.085 E60.18824
G1 X87.169 Y89.831 E60.22707
G1 X87.278 Y90.592 E60.26586
G1 X87.308 Y91.36 E60.30465
G1 X87.258 Y92.128 E60.34349
G1 X87.129 Y92.886 E60.38229
G1 X86.922 Y93.627 E60.42112
G1 X86.638 Y94.342 E60.45995
G1 X86.283 Y95.024 E60.49875
G1 X85.858 Y95.665 E60.53756
G1 X85.369 Y96.259 E60.57639
G1 X84.821 Y96.799 E60.61521
G1 X84.22 Y97.279 E60.65403
G1 X83.572 Y97.694 E60.69286
G1 X82.885 Y98.039 E60.73166
G1 X82.166 Y98.311 E60.77045
G1 X81.422 Y98.508 E60.80929
G1 X80.662 Y98.626 E60.8481
G1 X79.919 Y98.664 E60.88565
G1 X78.126 Y98.666 E60.97613
G1 X97.979 Y127.02 E62.72291
G1 X98.387 Y127.672 E62.76173
G1 X98.725 Y128.363 E62.80055
G1 X98.989 Y129.085 E62.83934
G1 X99.177 Y129.831 E62.87816
G1 X99.286 Y130.592 E62.91696
G1 X99.316 Y131.361 E62.9558
G1 X99.266 Y132.128 E62.99459
G1 X99.137 Y132.886 E63.03339
G1 X98.93 Y133.627 E63.07222
G1 X98.646 Y134.342 E63.11104
G1 X98.291 Y135.024 E63.14984
G1 X97.866 Y135.665 E63.18865
G1 X97.377 Y136.259 E63.22748
G1 X96.829 Y136.799 E63.26631
G1 X96.228 Y137.279 E63.30512
G1 X95.58 Y137.694 E63.34396
G1 X94.893 Y138.039 E63.38275
G1 X94.174 Y138.312 E63.42156
G1 X93.946 Y138.372 E63.43346
G1 X110 Y161.319 E64.84676
G1 X126.054 Y138.371 E66.26009
G1 X125.812 Y138.307 E66.27273
G1 X125.093 Y138.033 E66.31156
G1 X124.407 Y137.686 E66.35035
G1 X123.76 Y137.27 E66.38917
G1 X123.16 Y136.789 E66.42798
G1 X122.613 Y136.248 E66.4668
G1 X122.125 Y135.653 E66.50564
G1 X121.702 Y135.011 E66.54444
G1 X121.347 Y134.328 E66.58328
G1 X121.066 Y133.613 E66.62205
G1 X120.86 Y132.871 E66.66091
G1 X120.732 Y132.113 E66.69971
G1 X120.683 Y131.345 E66.73854
G1 X120.715 Y130.577 E66.77733
G1 X120.826 Y129.816 E66.81614
G1 X121.016 Y129.07 E66.85499
G1 X121.282 Y128.349 E66.89378
G1 X121.621 Y127.658 E66.93262
G1 X122.021 Y127.02 E66.97062
G1 X141.874 Y98.666 E68.7174
G1 X140.081 Y98.664 E68.80788
G1 X139.313 Y98.623 E68.84669
G1 X138.553 Y98.502 E68.88553
G1 X137.81 Y98.304 E68.92434
G1 X137.092 Y98.029 E68.96314
G1 X136.406 Y97.681 E69.00196
G1 X135.759 Y97.264 E69.0408
G1 X135.16 Y96.782 E69.0796
G1 X134.614 Y96.24 E69.11843
G1 X134.127 Y95.645 E69.15723
G1 X133.705 Y95.002 E69.19604
G1 X133.351 Y94.319 E69.23486
G1 X133.07 Y93.603 E69.27368
G1 X132.865 Y92.862 E69.31248
G1 X132.739 Y92.103 E69.35131
G1 X132.691 Y91.335 E69.39014
G1 X132.724 Y90.567 E69.42893
G1 X132.836 Y89.806 E69.46775
G1 X133.027 Y89.061 E69.50656
G1 X133.294 Y88.339 E69.54541
G1 X133.634 Y87.649 E69.58423
G1 X134.027 Y87.022 E69.62157
G1 X153.869 Y58.659 E71.3684
G1 X119.119 Y58.647 E73.12207
G1 X118.351 Y58.607 E73.16088
G1 X117.592 Y58.487 E73.19966
G1 X116.848 Y58.289 E73.23852
G1 X116.13 Y58.015 E73.2773
G1 X115.443 Y57.668 E73.31614
G1 X114.797 Y57.251 E73.35494
G1 X114.197 Y56.77 E73.39375
G1 X113.65 Y56.229 E73.43258
G1 X113.163 Y55.634 E73.47138
G1 X112.739 Y54.992 E73.5102
G1 X112.385 Y54.309 E73.54903
G1 X112.104 Y53.593 E73.58784
G1 X111.898 Y52.852 E73.62666
G1 X111.771 Y52.093 E73.66549
G1 X111.722 Y51.249 E73.70816
G1 X111.716 Y22.21 E75.17362
G1 X111.756 Y21.441 E75.21248
G1 X111.875 Y20.682 E75.25125
G1 X112.073 Y19.938 E75.2901
G1 X112.346 Y19.219 E75.32891
G1 X112.693 Y18.533 E75.36771
G1 X113.109 Y17.886 E75.40653
G1 X113.59 Y17.286 E75.44534
G1 X114.131 Y16.739 E75.48416
G1 X114.726 Y16.251 E75.523
G1 X115.368 Y15.827 E75.56182
